X: 141002
T: The DISAPPOINTED COQUETTE
Q: "Irish Reel."
R: Reel.
%R: reel
B: James Kerr "Merry Melodies" v.1 p.41 s.0 #2
Z: 2016 John Chambers <jc:trillian.mit.edu>
M: C
L: 1/8
K: D
ug2 |\
fded cAAg | fdec d2(de) |\
fedc dAAB | =cAGE D2 :|\
(DE) |\
FGAB =cAAG | Add^c d2(de) |
fdec dAAB | =cAGE D2 (DE) |\
FGAB =cAAG | Addc d2(de) |\
fdec dAAB | =cAGE D2 |]

%%sep 1 1 500
%%sep 1 1 500

